X:1
T: Seanamhac Tube Station
C:John Carty
M:6/8
R: jig
L:1/8
%%printtempo 0
Q:160
K:F
"Gm"GFD DCD| GAc d3|dcA cAF|"F"GFD CDF|
"Gm"GFD DCD|GAc d3|"F"dcA cAF|1"Gm"G3 G2A :|2G3 GAc||
"Bb"d2d- dcA|"F"c2c- cAc|"Dm"dcA cAF|"Gm"GFD CAc|
"Bb"d2d- dcA|"F"c2c- cAc|"Dm"dcA cAF|"C"G3 GAc||
"Bb"d2d- dcA|"F"c2c- cAc|"Dm"dcA cAF|"Gm"GFD CDF|
"Gm"GFD GFD|GFD dcA|"Dm" dcA dcA|"Gm"G3 G2A|]
